X: 22
M: 6/8
L: 1/8
K: Am
| "Am"EAA ABc | "E(m)"edB "Am"cBA | "G"BGG dGG | "G"Bdc BAG \
| "Am"EAA ABc | "C"edc g2e | "Am"edc "E(m)"Bcd | "Am"ecA A2 :|
^f \
| "Em"ge^f  g2a  | "Em"ge^f (g2c) |  "G"BGG       dGG |  "G"Bdc BAG \
| "Em"ge^f (g2a) | "Em"ge^f  g2f  | "Am"edc "E(m)"Bcd | "Am"ecA A2 ||
^f \
| "Em"ge^f (g2a) | "Em"ge^f  g2c  |  "G"BGG       dGG |  "G"Bdc BAG \
| "Am"EAA   ABc  |  "C"edc  (g2e) | "Am"edc "E(m)"Bcd | "Am"ecA A2 |]


